img/arti-downloads-logo.svg

<svg width="139" height="49" viewBox="0 0 139 49" fill="none" xmlns="http://www.w3.org/2000/svg">
<path d="M44.9224 29.6439H47.4698L46.1896 21.1097L44.9224 29.6439ZM50.9612 35.0004H48.2974L47.8448 31.9395H44.5991L44.1465 35.0004H41.7155L44.4051 18.1136H48.2715L50.9612 35.0004Z" fill="black"/>
<path d="M54.7629 20.526V25.714H55.7974C56.7802 25.714 57.3879 25.286 57.3879 23.9242V22.264C57.3879 21.0578 56.9741 20.526 56.0431 20.526H54.7629ZM57.6465 35.0004C57.5043 34.5724 57.4008 34.3001 57.4008 32.9253V30.2664C57.4008 28.6971 56.8707 28.1134 55.6681 28.1134H54.75V34.9875H52.0991V18.1136H56.0948C58.8362 18.1136 60.0129 19.3977 60.0129 21.9916V23.3146C60.0129 25.0525 59.4569 26.1809 58.2802 26.7386C59.5991 27.2963 60.0388 28.5674 60.0388 30.3313V32.9382C60.0388 33.7553 60.0646 34.3649 60.3233 34.9875H57.6465V35.0004Z" fill="black"/>
<path d="M61.0215 18.1136H69.1939V20.526H66.4267V35.0004H63.7887V20.526H61.0215V18.1136Z" fill="black"/>
<path d="M70.319 18.1136H72.9698V35.0004H70.319V18.1136Z" fill="black"/>
<path d="M77.1595 25.6232H80.5733V28.0356H77.1595V35.0004H74.5216V18.1136H81.5173V20.526H77.1595V25.6232Z" fill="black"/>
<path d="M84.5301 29.6439H87.0775L85.8103 21.1097L84.5301 29.6439ZM90.5689 35.0004H87.9051L87.4525 31.9395H84.2068L83.7543 35.0004H81.3232L84.0129 18.1136H87.8792L90.5689 35.0004Z" fill="black"/>
<path d="M99.2715 28.71V30.9538C99.2715 33.6516 97.9267 35.195 95.3275 35.195C92.7284 35.195 91.3836 33.6516 91.3836 30.9538V22.1732C91.3836 19.4755 92.7284 17.9321 95.3275 17.9321C97.9267 17.9321 99.2715 19.4755 99.2715 22.1732V23.8074H96.7758V21.9916C96.7758 20.7854 96.2456 20.3315 95.4051 20.3315C94.5646 20.3315 94.0344 20.7854 94.0344 21.9916V31.1095C94.0344 32.3157 94.5646 32.7437 95.4051 32.7437C96.2456 32.7437 96.7758 32.3157 96.7758 31.1095V28.6971H99.2715V28.71Z" fill="black"/>
<path d="M100.19 18.1136H108.362V20.526H105.595V35.0004H102.957V20.526H100.19V18.1136Z" fill="black"/>
<path d="M111.97 31.1224C111.97 32.3286 112.5 32.7826 113.34 32.7826C114.181 32.7826 114.711 32.3286 114.711 31.1224V22.0046C114.711 20.7984 114.181 20.3445 113.34 20.3445C112.5 20.3445 111.97 20.7984 111.97 22.0046V31.1224ZM109.319 22.1732C109.319 19.4755 110.741 17.9321 113.34 17.9321C115.94 17.9321 117.362 19.4755 117.362 22.1732V30.9538C117.362 33.6516 115.94 35.195 113.34 35.195C110.741 35.195 109.319 33.6516 109.319 30.9538V22.1732Z" fill="black"/>
<path d="M121.435 20.526V25.714H122.47C123.453 25.714 124.06 25.286 124.06 23.9242V22.264C124.06 21.0578 123.647 20.526 122.716 20.526H121.435ZM124.319 35.0004C124.177 34.5724 124.073 34.3001 124.073 32.9253V30.2664C124.073 28.6971 123.543 28.1134 122.341 28.1134H121.422V34.9875H118.784V18.1136H122.78C125.522 18.1136 126.698 19.3977 126.698 21.9916V23.3146C126.698 25.0525 126.142 26.1809 124.966 26.7386C126.284 27.2963 126.724 28.5674 126.724 30.3313V32.9382C126.724 33.7553 126.75 34.3649 127.009 34.9875H124.319V35.0004Z" fill="black"/>
<path d="M130.655 29.4104L127.319 18.1136H130.086L132.103 25.8178L134.121 18.1136H136.655L133.306 29.4104V35.0004H130.655V29.4104Z" fill="black"/>
<path d="M30.5172 35.2598H0.0387702V32.9123H30.5172V35.2598Z" fill="#41BF47"/>
<path d="M41.8189 14.6248C41.4181 14.6248 41.056 14.5859 40.7586 14.4951V12.9906C41.0689 13.0684 41.3534 13.1073 41.612 13.1073C42.0129 13.1073 42.2974 12.9776 42.4655 12.7312C42.6336 12.4847 42.7241 12.0956 42.7241 11.5769V3.5874H44.5345V11.5639C44.5345 12.5626 44.3017 13.3148 43.8491 13.8466C43.3836 14.3654 42.7112 14.6248 41.8189 14.6248Z" fill="#41BF47"/>
<path d="M48.4267 12.1216H46.6552V3.5874H51.5302V5.06597H48.4267V7.27085H51.3233V8.74942H48.4267V12.1216Z" fill="#41BF47"/>
<path d="M56.6896 5.46802C56.9353 5.46802 57.1293 5.48099 57.2845 5.5199L57.1551 7.19301C57.0129 7.1541 56.8319 7.12816 56.625 7.12816C56.056 7.12816 55.6164 7.27083 55.306 7.56914C54.9957 7.86744 54.8276 8.26951 54.8276 8.80128V12.1216H53.056V5.59772H54.4008L54.6595 6.70016H54.75C54.9569 6.337 55.2284 6.03869 55.5646 5.8182C55.9138 5.58475 56.2888 5.46802 56.6896 5.46802Z" fill="#41BF47"/>
<path d="M59.8836 8.84019C59.8836 9.48868 59.987 9.96857 60.2068 10.3058C60.4137 10.643 60.7629 10.7986 61.2413 10.7986C61.7198 10.7986 62.056 10.63 62.2629 10.3058C62.4698 9.98154 62.5732 9.48868 62.5732 8.84019C62.5732 8.19169 62.4698 7.71181 62.2629 7.38756C62.056 7.06331 61.7068 6.90767 61.2284 6.90767C60.7499 6.90767 60.4137 7.06331 60.2068 7.38756C59.9999 7.71181 59.8836 8.19169 59.8836 8.84019ZM64.3836 8.84019C64.3836 9.90372 64.0991 10.7338 63.543 11.3304C62.987 11.927 62.2111 12.2253 61.2155 12.2253C60.5948 12.2253 60.0387 12.0827 59.5603 11.8103C59.0818 11.5379 58.7198 11.1359 58.4611 10.63C58.2025 10.1112 58.0732 9.51462 58.0732 8.82722C58.0732 7.76369 58.3448 6.93361 58.9008 6.337C59.4568 5.76632 60.2456 5.46802 61.2413 5.46802C61.862 5.46802 62.418 5.61069 62.8965 5.88305C63.3749 6.15542 63.737 6.54452 63.9956 7.05034C64.2543 7.55617 64.3836 8.15278 64.3836 8.84019Z" fill="#41BF47"/>
<path d="M67.1379 7.72478C67.1379 8.07496 67.2155 8.3603 67.3836 8.56782C67.5388 8.77534 67.7844 8.8791 68.1206 8.8791C68.4569 8.8791 68.7025 8.77534 68.8577 8.56782C69.0129 8.3603 69.0905 8.08793 69.0905 7.72478C69.0905 6.93361 68.7672 6.54452 68.1206 6.54452C67.4612 6.54452 67.1379 6.94658 67.1379 7.72478ZM66.4913 13.0424C66.4913 13.2889 66.6077 13.4834 66.8405 13.6261C67.0732 13.7687 67.4094 13.8336 67.8232 13.8336C68.4569 13.8336 68.9612 13.7428 69.3232 13.5742C69.6853 13.3926 69.8663 13.1592 69.8663 12.8609C69.8663 12.6144 69.7629 12.4458 69.5431 12.355C69.3232 12.2642 69 12.2124 68.5474 12.2124H67.6293C67.306 12.2124 67.0344 12.2902 66.8146 12.4458C66.5948 12.5885 66.4913 12.783 66.4913 13.0424ZM71.5086 5.59772V6.50561L70.487 6.76501C70.6681 7.06331 70.7715 7.38756 70.7715 7.75072C70.7715 8.45109 70.5258 8.99583 70.0474 9.38492C69.556 9.77402 68.8836 9.96857 68.0172 9.96857L67.6939 9.9556L67.4353 9.92966C67.2543 10.0723 67.1638 10.228 67.1638 10.3966C67.1638 10.656 67.487 10.7857 68.1465 10.7857H69.2586C69.9698 10.7857 70.5129 10.9413 70.8879 11.2526C71.2629 11.5639 71.4439 12.0178 71.4439 12.6015C71.4439 13.3667 71.1206 13.9503 70.487 14.3783C69.8534 14.7934 68.9353 15.0139 67.7586 15.0139C66.8534 15.0139 66.1551 14.8582 65.6767 14.534C65.1982 14.2227 64.9525 13.7687 64.9525 13.1981C64.9525 12.809 65.0689 12.4718 65.3146 12.2124C65.5603 11.953 65.9224 11.7584 66.3879 11.6417C66.2069 11.5639 66.0517 11.4342 65.9094 11.2656C65.7672 11.084 65.7025 10.9024 65.7025 10.7079C65.7025 10.4614 65.7801 10.2539 65.9224 10.0853C66.0646 9.91669 66.2715 9.76105 66.5431 9.59244C66.2069 9.44977 65.9353 9.20334 65.7284 8.8791C65.5344 8.55485 65.431 8.16575 65.431 7.72478C65.431 7.01143 65.6638 6.4667 66.1293 6.0776C66.5948 5.68851 67.2543 5.49396 68.1077 5.49396C68.2888 5.49396 68.5086 5.50693 68.7543 5.54584C69 5.58475 69.1681 5.59772 69.2327 5.62366H71.5086V5.59772Z" fill="#41BF47"/>
<path d="M43.5905 45.532V46.5566C43.5905 47.0754 43.3706 47.257 43.0086 47.257C42.6465 47.257 42.4267 47.0754 42.4267 46.5566V42.6786C42.4267 42.1598 42.6465 41.9653 43.0086 41.9653C43.3706 41.9653 43.5905 42.1598 43.5905 42.6786V43.4439H44.6508V42.7435C44.6508 41.5892 44.0818 40.9407 42.9698 40.9407C41.8577 40.9407 41.2887 41.6021 41.2887 42.7435V46.4788C41.2887 47.6331 41.8577 48.2816 42.9698 48.2816C44.0818 48.2816 44.6508 47.6202 44.6508 46.4788V45.519H43.5905V45.532ZM46.3706 42.6786C46.3706 42.1598 46.5905 41.9653 46.9525 41.9653C47.3146 41.9653 47.5344 42.1598 47.5344 42.6786V46.5566C47.5344 47.0754 47.3146 47.27 46.9525 47.27C46.5905 47.27 46.3706 47.0754 46.3706 46.5566V42.6786ZM45.2456 46.4788C45.2456 47.6331 45.8534 48.2816 46.9525 48.2816C48.0517 48.2816 48.6594 47.6202 48.6594 46.4788V42.7435C48.6594 41.5892 48.0517 40.9407 46.9525 40.9407C45.8534 40.9407 45.2456 41.6021 45.2456 42.7435V46.4788ZM50.9482 41.0185H49.3836V48.2038H50.3663V43.1196L51.2068 48.2038H52.2672L53.0431 43.0548V48.2038H54.1034V41.0185H52.5387L51.7758 46.1157L50.9482 41.0185ZM56.4827 41.0185H54.9181V48.2038H55.9008V43.1196L56.7413 48.2038H57.8017L58.5775 43.0548V48.2038H59.6379V41.0185H58.0732L57.3103 46.1157L56.4827 41.0185ZM60.4137 41.0185V46.4918C60.4137 47.6461 60.9827 48.2946 62.0948 48.2946C63.1939 48.2946 63.7758 47.6331 63.7758 46.4918V41.0185H62.7155V46.5566C62.7155 47.0754 62.4956 47.257 62.1336 47.257C61.7715 47.257 61.5517 47.0754 61.5517 46.5566V41.0185H60.4137ZM66.9439 48.2038H68.0948V41.0185H67.0862V45.3245L65.9353 41.0185H64.5258V48.2038H65.5344V43.0029L66.9439 48.2038ZM68.8965 48.2038H70.0215V41.0185H68.8965V48.2038ZM70.5258 42.0431H71.7025V48.2038H72.8275V42.0431H74.0043V41.0185H70.5258V42.0431ZM75.5431 48.2038H76.6681V45.8173L78.0905 41.0185H77.0172L76.1637 44.2869L75.3103 41.0185H74.1336L75.556 45.8173V48.2038H75.5431ZM81.2586 42.0431H83.1982V41.0185H80.1336V48.2038H83.1982V47.1792H81.2586V45.0781H82.7974V44.0534H81.2586V42.0431ZM83.8965 48.2038H85.681C86.806 48.2038 87.362 47.5813 87.362 46.4269V42.7954C87.362 41.641 86.806 41.0185 85.681 41.0185H83.8965V48.2038ZM85.6551 42.0431C86.0172 42.0431 86.2241 42.2247 86.2241 42.7435V46.4788C86.2241 46.9976 86.0043 47.1792 85.6551 47.1792H85.0215V42.0431H85.6551ZM88.0732 48.2038H89.1982V41.0185H88.0732V48.2038ZM89.6896 42.0431H90.8663V48.2038H91.9913V42.0431H93.1681V41.0185H89.6896V42.0431ZM93.6594 48.2038H94.7844V41.0185H93.6594V48.2038ZM96.6336 42.6786C96.6336 42.1598 96.8534 41.9653 97.2155 41.9653C97.5775 41.9653 97.7974 42.1598 97.7974 42.6786V46.5566C97.7974 47.0754 97.5775 47.27 97.2155 47.27C96.8534 47.27 96.6336 47.0754 96.6336 46.5566V42.6786ZM95.5086 46.4788C95.5086 47.6331 96.1163 48.2816 97.2155 48.2816C98.3146 48.2816 98.9224 47.6202 98.9224 46.4788V42.7435C98.9224 41.5892 98.3146 40.9407 97.2155 40.9407C96.1163 40.9407 95.5086 41.6021 95.5086 42.7435V46.4788ZM102.065 48.2038H103.215V41.0185H102.207V45.3245L101.056 41.0185H99.6465V48.2038H100.655V43.0029L102.065 48.2038ZM106.733 42.0431H108.582V41.0185H105.608V48.2038H106.733V45.2337H108.181V44.2091H106.733V42.0431ZM110.159 42.6786C110.159 42.1598 110.379 41.9653 110.741 41.9653C111.103 41.9653 111.323 42.1598 111.323 42.6786V46.5566C111.323 47.0754 111.103 47.27 110.741 47.27C110.379 47.27 110.159 47.0754 110.159 46.5566V42.6786ZM109.034 46.4788C109.034 47.6331 109.642 48.2816 110.741 48.2816C111.84 48.2816 112.448 47.6202 112.448 46.4788V42.7435C112.448 41.5892 111.84 40.9407 110.741 40.9407C109.642 40.9407 109.034 41.6021 109.034 42.7435V46.4788ZM116.677 48.2038C116.56 47.9314 116.56 47.685 116.56 47.3348V46.2324C116.56 45.4801 116.379 44.9354 115.81 44.7019C116.315 44.4685 116.547 43.9886 116.547 43.2493V42.6786C116.547 41.5762 116.043 41.0315 114.879 41.0315H113.185V48.2168H114.31V45.2856H114.698C115.215 45.2856 115.435 45.532 115.435 46.1935V47.3219C115.435 47.9055 115.474 48.0222 115.539 48.2038H116.677ZM114.853 42.0431C115.254 42.0431 115.422 42.2636 115.422 42.7824V43.4957C115.422 44.0664 115.164 44.261 114.75 44.261H114.31V42.0561H114.853V42.0431ZM121.086 45.532V46.5566C121.086 47.0754 120.866 47.257 120.504 47.257C120.142 47.257 119.922 47.0754 119.922 46.5566V42.6786C119.922 42.1598 120.142 41.9653 120.504 41.9653C120.866 41.9653 121.086 42.1598 121.086 42.6786V43.4439H122.147V42.7435C122.147 41.5892 121.578 40.9407 120.465 40.9407C119.366 40.9407 118.784 41.6021 118.784 42.7435V46.4788C118.784 47.6331 119.353 48.2816 120.465 48.2816C121.565 48.2816 122.147 47.6202 122.147 46.4788V45.519H121.086V45.532ZM122.47 48.2038H123.44L126.259 41.0185H125.289L122.47 48.2038ZM128.935 45.532V46.5566C128.935 47.0754 128.715 47.257 128.353 47.257C127.991 47.257 127.772 47.0754 127.772 46.5566V42.6786C127.772 42.1598 127.991 41.9653 128.353 41.9653C128.715 41.9653 128.935 42.1598 128.935 42.6786V43.4439H129.996V42.7435C129.996 41.5892 129.427 40.9407 128.315 40.9407C127.215 40.9407 126.634 41.6021 126.634 42.7435V46.4788C126.634 47.6331 127.203 48.2816 128.315 48.2816C129.414 48.2816 129.996 47.6202 129.996 46.4788V45.519H128.935V45.532ZM132.698 42.8343H131.897V44.2221H130.526V45.0262H131.897V46.4269H132.698V45.0262H134.069V44.2221H132.698V42.8343ZM136.746 42.8343H135.944V44.2221H134.573V45.0262H135.944V46.4269H136.746V45.0262H138.116V44.2221H136.746V42.8343Z" fill="#4D4D4D"/>
<path d="M20.625 1.77163C21.2198 2.06994 21.4655 2.78328 21.181 3.37989C20.8836 3.97651 20.1724 4.22294 19.5776 3.9376C18.8664 3.58741 18.1164 3.31504 17.3405 3.13347C16.5776 2.95189 15.7759 2.8611 14.9741 2.8611C12.0776 2.8611 9.46552 4.04136 7.56466 5.93496C5.6638 7.84153 4.5 10.4615 4.5 13.3667C4.5 16.272 5.67673 18.8919 7.56466 20.7984C9.46552 22.705 12.0776 23.8723 14.9741 23.8723C16.0862 23.8723 17.1724 23.7037 18.194 23.3665C19.2284 23.0293 20.2112 22.5364 21.1034 21.8879C21.6466 21.4988 22.3966 21.6155 22.7845 22.1603C23.1724 22.705 23.056 23.4573 22.5129 23.8464C21.4138 24.6375 20.2112 25.2471 18.931 25.6622C17.6509 26.0772 16.319 26.2977 14.9741 26.2977C11.4181 26.2977 8.19828 24.8451 5.87069 22.5105C3.54311 20.1759 2.09483 16.9464 2.09483 13.3797C2.09483 9.81295 3.54311 6.58346 5.87069 4.24888C8.19828 1.9143 11.4181 0.46167 14.9741 0.46167C15.944 0.46167 16.9267 0.578399 17.8836 0.798887C18.8147 0.993435 19.7457 1.33065 20.625 1.77163ZM17.7155 12.0178C17.7155 11.3564 18.2586 10.8116 18.9181 10.8116C19.5776 10.8116 20.1207 11.3564 20.1207 12.0178V13.5872H21.6853C22.3448 13.5872 22.8879 14.1319 22.8879 14.7934C22.8879 15.4549 22.3448 15.9996 21.6853 15.9996H20.1207V17.5689C20.1207 18.2304 19.5776 18.7751 18.9181 18.7751C18.2586 18.7751 17.7155 18.2304 17.7155 17.5689V15.9996H16.1509C15.4914 15.9996 14.9483 15.4549 14.9483 14.7934C14.9483 14.1319 15.4914 13.5872 16.1509 13.5872H17.7155V12.0178ZM24.2328 6.0906C24.2328 5.42914 24.7759 4.8844 25.4353 4.8844C26.0948 4.8844 26.6379 5.42914 26.6379 6.0906V7.65996H28.2026C28.8621 7.65996 29.4052 8.20469 29.4052 8.86615C29.4052 9.52762 28.8621 10.0724 28.2026 10.0724H26.6379V11.6417C26.6379 12.3032 26.0948 12.8479 25.4353 12.8479C24.7759 12.8479 24.2328 12.3032 24.2328 11.6417V10.0724H22.6681C22.0086 10.0724 21.4655 9.52762 21.4655 8.86615C21.4655 8.20469 22.0086 7.65996 22.6681 7.65996H24.2328V6.0906Z" fill="#40BE47"/>
</svg>

<svg width="139" height="49" fill="none" xmlns="http://www.w3.org/2000/svg"><path d="M44.922 29.644h2.548l-1.28-8.534-1.268 8.534zM50.962 35h-2.665l-.452-3.06h-3.246L44.147 35h-2.431l2.69-16.886h3.866L50.962 35zM54.763 20.526v5.188h1.034c.983 0 1.59-.428 1.59-1.79v-1.66c0-1.206-.413-1.738-1.344-1.738h-1.28zM57.647 35c-.143-.428-.246-.7-.246-2.075v-2.659c0-1.569-.53-2.153-1.733-2.153h-.918v6.874H52.1V18.114h3.995c2.741 0 3.918 1.284 3.918 3.878v1.323c0 1.737-.556 2.866-1.733 3.424 1.32.557 1.759 1.828 1.759 3.592v2.607c0 .817.026 1.427.284 2.05h-2.676V35zM61.022 18.114h8.172v2.412h-2.767V35h-2.638V20.526h-2.767v-2.412zM70.319 18.114h2.65V35h-2.65V18.114zM77.16 25.623h3.413v2.413H77.16V35h-2.638V18.114h6.995v2.412H77.16v5.097zM84.53 29.644h2.547L85.81 21.11l-1.28 8.534zM90.57 35h-2.664l-.453-3.06h-3.245L83.754 35h-2.43l2.689-16.886h3.866L90.57 35zM99.272 28.71v2.244c0 2.698-1.345 4.241-3.945 4.241-2.599 0-3.943-1.543-3.943-4.241v-8.78c0-2.698 1.344-4.242 3.944-4.242 2.599 0 3.944 1.544 3.944 4.241v1.634h-2.496v-1.815c0-1.207-.53-1.66-1.37-1.66-.841 0-1.372.453-1.372 1.66v9.117c0 1.207.53 1.635 1.371 1.635.84 0 1.37-.428 1.37-1.634v-2.413h2.496v.013zM100.19 18.114h8.172v2.412h-2.767V35h-2.638V20.526h-2.767v-2.412zM111.97 31.122c0 1.207.53 1.66 1.37 1.66.841 0 1.371-.453 1.371-1.66v-9.117c0-1.207-.53-1.66-1.371-1.66-.84 0-1.37.453-1.37 1.66v9.117zm-2.651-8.949c0-2.697 1.422-4.24 4.021-4.24 2.6 0 4.022 1.543 4.022 4.24v8.78c0 2.699-1.422 4.242-4.022 4.242-2.599 0-4.021-1.543-4.021-4.241v-8.78zM121.435 20.526v5.188h1.035c.983 0 1.59-.428 1.59-1.79v-1.66c0-1.206-.413-1.738-1.344-1.738h-1.281zM124.319 35c-.142-.428-.246-.7-.246-2.075v-2.659c0-1.569-.53-2.153-1.732-2.153h-.919v6.874h-2.638V18.114h3.996c2.742 0 3.918 1.284 3.918 3.878v1.323c0 1.737-.556 2.866-1.732 3.424 1.318.557 1.758 1.828 1.758 3.592v2.607c0 .817.026 1.427.285 2.05h-2.69V35zM130.655 29.41l-3.336-11.296h2.767l2.017 7.704 2.018-7.704h2.534l-3.349 11.296V35h-2.651v-5.59z" fill="#000"/><path d="M30.517 35.26H.04v-2.348h30.478v2.348zM41.819 14.625c-.4 0-.763-.04-1.06-.13v-1.504c.31.077.594.116.853.116.4 0 .685-.13.853-.376.169-.246.26-.635.26-1.154v-7.99h1.81v7.977c0 .999-.233 1.75-.686 2.283-.465.518-1.138.778-2.03.778zM48.427 12.122h-1.772V3.587h4.875v1.479h-3.103v2.205h2.896v1.478h-2.896v3.373zM56.69 5.468c.245 0 .44.013.595.052l-.13 1.673a2.04 2.04 0 00-.53-.065c-.569 0-1.009.143-1.319.441-.31.298-.478.7-.478 1.232v3.32h-1.772V5.599h1.345l.258 1.102h.091c.207-.363.478-.661.815-.882.349-.233.724-.35 1.125-.35zM59.884 8.84c0 .649.103 1.129.323 1.466.207.337.556.493 1.034.493.479 0 .815-.169 1.022-.493.207-.324.31-.817.31-1.466 0-.648-.103-1.128-.31-1.452-.207-.325-.556-.48-1.035-.48-.478 0-.814.155-1.021.48-.207.324-.323.804-.323 1.452zm4.5 0c0 1.064-.285 1.894-.841 2.49-.556.597-1.332.895-2.328.895-.62 0-1.176-.142-1.655-.415-.478-.272-.84-.674-1.099-1.18-.258-.519-.388-1.115-.388-1.803 0-1.063.272-1.893.828-2.49.556-.57 1.345-.869 2.34-.869.621 0 1.177.143 1.656.415.478.272.84.662 1.099 1.167.258.506.388 1.103.388 1.79zM67.138 7.725c0 .35.078.635.246.843.155.207.4.311.737.311.336 0 .582-.104.737-.311.155-.208.233-.48.233-.843 0-.791-.324-1.18-.97-1.18-.66 0-.983.402-.983 1.18zm-.647 5.317c0 .247.117.441.35.584.232.143.568.208.982.208.634 0 1.138-.091 1.5-.26.362-.181.543-.415.543-.713 0-.247-.103-.415-.323-.506-.22-.09-.543-.143-.996-.143h-.918c-.323 0-.595.078-.814.234a.663.663 0 00-.324.596zm5.018-7.444v.908l-1.022.259c.181.298.285.623.285.986 0 .7-.246 1.245-.725 1.634-.491.389-1.163.584-2.03.584l-.323-.013-.259-.026c-.18.142-.271.298-.271.467 0 .259.323.389.983.389h1.112c.71 0 1.254.155 1.629.467.375.31.556.765.556 1.348 0 .766-.323 1.35-.957 1.777-.634.415-1.552.636-2.728.636-.906 0-1.604-.156-2.082-.48a1.516 1.516 0 01-.725-1.336c0-.389.117-.726.363-.986.245-.259.607-.454 1.073-.57a1.312 1.312 0 01-.479-.376.88.88 0 01-.207-.558c0-.247.078-.454.22-.623.143-.168.35-.324.621-.493a1.804 1.804 0 01-.815-.713 2.22 2.22 0 01-.297-1.154c0-.714.233-1.258.698-1.647.466-.39 1.125-.584 1.979-.584.18 0 .4.013.646.052s.414.052.479.078h2.276v-.026z" fill="#41BF47"/><path d="M43.59 45.532v1.025c0 .518-.22.7-.581.7-.362 0-.582-.182-.582-.7v-3.878c0-.52.22-.714.582-.714s.581.195.581.714v.765h1.06v-.7c0-1.155-.568-1.803-1.68-1.803s-1.681.661-1.681 1.802v3.736c0 1.154.569 1.803 1.68 1.803 1.113 0 1.682-.662 1.682-1.803v-.96h-1.06v.013zm2.78-2.853c0-.52.22-.714.583-.714.362 0 .581.195.581.714v3.878c0 .518-.22.713-.581.713-.363 0-.582-.195-.582-.713v-3.878zm-1.124 3.8c0 1.154.607 1.803 1.706 1.803 1.1 0 1.707-.662 1.707-1.803v-3.736c0-1.154-.607-1.802-1.706-1.802-1.1 0-1.707.661-1.707 1.802v3.736zm5.702-5.46h-1.564v7.185h.982V43.12l.84 5.084h1.061l.776-5.15v5.15h1.06v-7.185H52.54l-.763 5.097-.828-5.097zm5.535 0h-1.565v7.185h.983V43.12l.84 5.084h1.06l.776-5.15v5.15h1.06v-7.185h-1.564l-.763 5.097-.827-5.097zm3.93 0v5.473c0 1.154.57 1.803 1.682 1.803 1.099 0 1.68-.662 1.68-1.803v-5.473h-1.06v5.538c0 .518-.22.7-.581.7-.362 0-.582-.182-.582-.7v-5.538h-1.138zm6.53 7.185h1.152v-7.185h-1.009v4.306l-1.15-4.306h-1.41v7.185h1.008v-5.201l1.41 5.2zm1.954 0h1.124v-7.185h-1.124v7.185zm1.629-6.16h1.177v6.16h1.124v-6.16h1.177v-1.025h-3.478v1.024zm5.017 6.16h1.125v-2.387l1.422-4.798h-1.073l-.853 3.268-.854-3.268h-1.176l1.422 4.798v2.387h-.013zm5.716-6.16h1.94v-1.025h-3.065v7.185h3.064v-1.025h-1.94v-2.1h1.54v-1.026h-1.54v-2.01zm2.638 6.16h1.784c1.125 0 1.681-.623 1.681-1.777v-3.632c0-1.154-.556-1.776-1.681-1.776h-1.784v7.185zm1.758-6.16c.362 0 .57.18.57.7v3.735c0 .519-.22.7-.57.7h-.633v-5.136h.633zm2.418 6.16h1.125v-7.185h-1.125v7.185zm1.617-6.16h1.176v6.16h1.125v-6.16h1.177v-1.025H89.69v1.024zm3.97 6.16h1.124v-7.185H93.66v7.185zm2.974-5.525c0-.52.22-.714.582-.714s.581.195.581.714v3.878c0 .518-.22.713-.581.713-.363 0-.582-.195-.582-.713v-3.878zm-1.125 3.8c0 1.154.607 1.803 1.707 1.803 1.099 0 1.706-.662 1.706-1.803v-3.736c0-1.154-.607-1.802-1.706-1.802-1.1 0-1.707.661-1.707 1.802v3.736zm6.556 1.725h1.15v-7.185h-1.008v4.306l-1.151-4.306h-1.41v7.185h1.009v-5.201l1.41 5.2zm4.668-6.16h1.849v-1.025h-2.974v7.185h1.125v-2.97h1.448v-1.025h-1.448v-2.166zm3.426.635c0-.52.22-.714.582-.714s.582.195.582.714v3.878c0 .518-.22.713-.582.713s-.582-.195-.582-.713v-3.878zm-1.125 3.8c0 1.154.608 1.803 1.707 1.803 1.099 0 1.707-.662 1.707-1.803v-3.736c0-1.154-.608-1.802-1.707-1.802-1.099 0-1.707.661-1.707 1.802v3.736zm7.643 1.725c-.117-.273-.117-.519-.117-.87v-1.102c0-.752-.181-1.297-.75-1.53.505-.233.737-.713.737-1.453v-.57c0-1.103-.504-1.648-1.668-1.648h-1.694v7.186h1.125v-2.931h.388c.517 0 .737.246.737.907v1.129c0 .584.039.7.104.882h1.138zm-1.824-6.16c.401 0 .569.22.569.738v.714c0 .57-.258.765-.672.765h-.44v-2.205h.543v-.013zm6.233 3.488v1.025c0 .518-.22.7-.582.7s-.582-.182-.582-.7v-3.878c0-.52.22-.714.582-.714s.582.195.582.714v.765h1.061v-.7c0-1.155-.569-1.803-1.682-1.803-1.099 0-1.681.661-1.681 1.802v3.736c0 1.154.569 1.803 1.681 1.803 1.1 0 1.682-.662 1.682-1.803v-.96h-1.061v.013zm1.384 2.672h.97l2.819-7.185h-.97l-2.819 7.185zm6.465-2.672v1.025c0 .518-.22.7-.582.7s-.581-.182-.581-.7v-3.878c0-.52.219-.714.581-.714s.582.195.582.714v.765h1.061v-.7c0-1.155-.569-1.803-1.681-1.803-1.1 0-1.681.661-1.681 1.802v3.736c0 1.154.569 1.803 1.681 1.803 1.099 0 1.681-.662 1.681-1.803v-.96h-1.061v.013zm3.763-2.698h-.801v1.388h-1.371v.804h1.371v1.4h.801v-1.4h1.371v-.804h-1.371v-1.388zm4.048 0h-.802v1.388h-1.371v.804h1.371v1.4h.802v-1.4h1.37v-.804h-1.37v-1.388z" fill="#4D4D4D"/><path d="M20.625 1.772c.595.298.84 1.011.556 1.608a1.207 1.207 0 01-1.603.558 10.466 10.466 0 00-2.238-.805 10.464 10.464 0 00-9.776 2.801A10.473 10.473 0 004.5 13.368c0 2.905 1.177 5.525 3.065 7.431a10.41 10.41 0 007.41 3.074c1.111 0 2.197-.168 3.219-.506a10.447 10.447 0 002.91-1.478 1.199 1.199 0 011.68.272 1.207 1.207 0 01-.271 1.686c-1.1.791-2.302 1.401-3.582 1.816-1.28.415-2.612.636-3.957.636a12.823 12.823 0 01-9.103-3.787 12.9 12.9 0 01-3.776-9.131A12.9 12.9 0 015.87 4.249 12.823 12.823 0 0114.974.462c.97 0 1.953.116 2.91.337.93.194 1.862.532 2.741.973zm-2.91 10.246a1.21 1.21 0 011.203-1.206c.66 0 1.203.544 1.203 1.206v1.57h1.564c.66 0 1.203.544 1.203 1.205A1.21 1.21 0 0121.685 16h-1.564v1.569a1.21 1.21 0 01-1.203 1.206 1.21 1.21 0 01-1.203-1.206v-1.57h-1.564a1.21 1.21 0 01-1.203-1.206 1.21 1.21 0 011.203-1.206h1.564v-1.57zm6.518-5.927a1.21 1.21 0 011.202-1.207c.66 0 1.203.545 1.203 1.207V7.66h1.565c.66 0 1.202.545 1.202 1.206a1.21 1.21 0 01-1.202 1.206h-1.565v1.57a1.21 1.21 0 01-1.203 1.206 1.21 1.21 0 01-1.202-1.206v-1.57h-1.565a1.21 1.21 0 01-1.203-1.206 1.21 1.21 0 011.203-1.206h1.565V6.09z" fill="#40BE47"/></svg>
